svgs/light/suitcase.svg

<svg xmlns="http://www.w3.org/2000/svg" viewBox="0 0 512 512"><!--! Font Awesome Pro 6.6.0 by @fontawesome - https://fontawesome.com License - https://fontawesome.com/license (Commercial License) Copyright 2024 Fonticons, Inc. --><path d="M160 48l0 48 192 0 0-48c0-8.8-7.2-16-16-16L176 32c-8.8 0-16 7.2-16 16zM128 96l0-48c0-26.5 21.5-48 48-48L336 0c26.5 0 48 21.5 48 48l0 48 64 0c35.3 0 64 28.7 64 64l0 256c0 35.3-28.7 64-64 64L64 480c-35.3 0-64-28.7-64-64L0 160c0-35.3 28.7-64 64-64l64 0zm240 32l-224 0-16 0 0 320 256 0 0-320-16 0zM64 128c-17.7 0-32 14.3-32 32l0 256c0 17.7 14.3 32 32 32l32 0 0-320-32 0zM448 448c17.7 0 32-14.3 32-32l0-256c0-17.7-14.3-32-32-32l-32 0 0 320 32 0z"/></svg>

<svg xmlns="http://www.w3.org/2000/svg" viewBox="0 0 512 512"><!--! Font Awesome Pro 6.4.0 by @fontawesome - https://fontawesome.com License - https://fontawesome.com/license (Commercial License) Copyright 2023 Fonticons, Inc. --><path d="M160 48V96H352V48c0-8.8-7.2-16-16-16H176c-8.8 0-16 7.2-16 16zM128 96V48c0-26.5 21.5-48 48-48H336c26.5 0 48 21.5 48 48V96h64c35.3 0 64 28.7 64 64V416c0 35.3-28.7 64-64 64H64c-35.3 0-64-28.7-64-64V160c0-35.3 28.7-64 64-64h64zm240 32H144 128V448H384V128H368zM64 128c-17.7 0-32 14.3-32 32V416c0 17.7 14.3 32 32 32H96V128H64zM448 448c17.7 0 32-14.3 32-32V160c0-17.7-14.3-32-32-32H416V448h32z"/></svg>
